src/pos-icons/oil-lamp.svg

<svg height="24" viewBox="0 0 24 24" width="24" xmlns="http://www.w3.org/2000/svg"><path d="m5 20h11v2h-11m6-17h-1a2 2 0 0 0 -2 2h5a2 2 0 0 0 -2-2m5 3h6a2 2 0 0 1 -2 2h-1a4 4 0 0 0 -4 4v1a4 4 0 0 1 -4 4h-1a4 4 0 0 1 -4-4h-2a2 2 0 0 1 -2-2v-3a2 2 0 0 1 2-2m2 2h-2v3h2m13-8a2 2 0 0 1 2 2h1a2.9 2.9 0 0 0 -3-3 2 2 0 0 1 -2-2h-1a2.9 2.9 0 0 0 3 3"/></svg>

<?xml version="1.0" encoding="UTF-8"?><!DOCTYPE svg PUBLIC "-//W3C//DTD SVG 1.1//EN" "http://www.w3.org/Graphics/SVG/1.1/DTD/svg11.dtd"><svg xmlns="http://www.w3.org/2000/svg" xmlns:xlink="http://www.w3.org/1999/xlink" version="1.1" id="mdi-oil-lamp" width="24" height="24" viewBox="0 0 24 24"><path d="M5,20H16V22H5M11,5H10A2,2 0 0,0 8,7H13A2,2 0 0,0 11,5M16,8H22A2,2 0 0,1 20,10H19A4,4 0 0,0 15,14V15A4,4 0 0,1 11,19H10A4,4 0 0,1 6,15H4A2,2 0 0,1 2,13V10A2,2 0 0,1 4,8M6,10H4V13H6M19,5A2,2 0 0,1 21,7H22A2.9,2.9 0 0,0 19,4A2,2 0 0,1 17,2H16A2.9,2.9 0 0,0 19,5" /></svg>
